svg/drag.svg

<svg width="24" height="24" viewBox="0 0 24 24" fill="none" xmlns="http://www.w3.org/2000/svg">
<path d="M4 6C4 5.44772 4.44772 5 5 5H19C19.5523 5 20 5.44772 20 6C20 6.55228 19.5523 7 19 7H5C4.44772 7 4 6.55228 4 6ZM4 10C4 9.44772 4.44772 9 5 9H19C19.5523 9 20 9.44772 20 10C20 10.5523 19.5523 11 19 11H5C4.44772 11 4 10.5523 4 10ZM4 14C4 13.4477 4.44772 13 5 13H19C19.5523 13 20 13.4477 20 14C20 14.5523 19.5523 15 19 15H5C4.44772 15 4 14.5523 4 14ZM4 18C4 17.4477 4.44772 17 5 17H19C19.5523 17 20 17.4477 20 18C20 18.5523 19.5523 19 19 19H5C4.44772 19 4 18.5523 4 18Z" fill="#0D0D0D"/>
</svg>

<svg width="24" height="24" fill="none" xmlns="http://www.w3.org/2000/svg"><path d="M4 6a1 1 0 011-1h14a1 1 0 110 2H5a1 1 0 01-1-1zm0 4a1 1 0 011-1h14a1 1 0 110 2H5a1 1 0 01-1-1zm0 4a1 1 0 011-1h14a1 1 0 110 2H5a1 1 0 01-1-1zm0 4a1 1 0 011-1h14a1 1 0 110 2H5a1 1 0 01-1-1z" fill="#0D0D0D"/></svg>
